X: 171
T: the Camp
F:http://www.vwml.org/record/Thompsons1780/2277h/p86
B: Chas & Sam Thompson "Twenty Four Country Dances for the Year 1780", London 1780, p.86 #1 
F: http://www.vwml.org/browse/browse-collections-dance-tune-books/browse-thompsons1780
Z: 2014 John Chambers <jc:trillian.mit.edu> (added dance description) M: 2/4
L: 1/16
K: D
%----------------------------- 
A2 |\
d3fd2f2 | gfed dcBA | d3fd2f2 | a2a2a3A | d3fd2f2 | gfed dcBA | B2g2e2c2 | d6 :|
|: cd |\
e2c2f2d2 | g2e2a2f2 | B4 c2d2 | cdcB A2cd | e2c2f2d2 | g2e2a2f2 | G3b agfe | d6 :|
% - - - - - - - - - - Dance description - - - - - - - - - - %%begintext align
T: Kingsbridge Assembly
%R: jig
B: Chas & Sam Thompson "Twenty Four Country Dances for the Year 1780", London 1780, p.86 #2 
F: http://www.vwml.org/browse/browse-collections-dance-tune-books/browse-thompsons1780
Z: 2014 John Chambers <jc:trillian.mit.edu> (added dance description)
M: 6/8
L: 1/8
K: D
%-----------------------------
|:\
f2e f2e | dcd A2A | BGB AFA | GEG F2D |\
f2e f2e | dcd A2A | BAG FGE | D2D D3 :|
|:\
DFAAFD|GAB B3|AceecA|deff3|\
afd BcB | gec ABA | BAG FGE | D2D D3 :|
% - - - - - - - - - - Dance description - - - - - - - - - -

